images/short/quick_22.svg

<svg width="34" height="35" viewBox="0 0 34 35" fill="none" xmlns="http://www.w3.org/2000/svg">
<path d="M5.28675 26.9548L3.86078 31.8815L7.98727 29.78" stroke="#333333" stroke-width="3"/>
<path d="M32.5 17C32.5 25.5604 25.5604 32.5 17 32.5C8.43959 32.5 1.5 25.5604 1.5 17C1.5 8.43959 8.43959 1.5 17 1.5C25.5604 1.5 32.5 8.43959 32.5 17Z" stroke="#333333" stroke-width="3"/>
<path d="M14.7585 20.549V20.2472C14.7644 19.2114 14.8562 18.3858 15.0337 17.7702C15.2172 17.1547 15.4835 16.6576 15.8327 16.2788C16.1819 15.9 16.6022 15.5567 17.0934 15.2489C17.4603 15.0122 17.7888 14.7666 18.0788 14.5121C18.3688 14.2576 18.5997 13.9764 18.7713 13.6687C18.9429 13.355 19.0288 13.0058 19.0288 12.6211C19.0288 12.2127 18.9311 11.8546 18.7358 11.5469C18.5405 11.2391 18.2771 11.0024 17.9457 10.8366C17.6201 10.6709 17.2591 10.5881 16.8626 10.5881C16.4779 10.5881 16.1139 10.6739 15.7706 10.8455C15.4273 11.0112 15.1462 11.2598 14.9272 11.5913C14.7082 11.9168 14.5898 12.3222 14.5721 12.8075H10.9499C10.9795 11.6238 11.2636 10.6473 11.8022 9.87784C12.3408 9.10251 13.054 8.52545 13.9418 8.14666C14.8295 7.76195 15.8091 7.5696 16.8803 7.5696C18.0581 7.5696 19.0998 7.76491 20.0053 8.15554C20.9109 8.54025 21.6211 9.09955 22.136 9.83345C22.6509 10.5674 22.9084 11.4522 22.9084 12.4879C22.9084 13.1804 22.793 13.7959 22.5621 14.3345C22.3372 14.8672 22.0206 15.3407 21.6122 15.755C21.2038 16.1634 20.7215 16.5333 20.1651 16.8647C19.6976 17.1429 19.3129 17.4329 19.011 17.7347C18.7151 18.0366 18.4931 18.3858 18.3452 18.7823C18.2031 19.1789 18.1291 19.6671 18.1232 20.2472V20.549H14.7585ZM16.5163 26.2308C15.9245 26.2308 15.4184 26.0237 14.9982 25.6094C14.5839 25.1892 14.3797 24.6861 14.3857 24.1001C14.3797 23.5201 14.5839 23.023 14.9982 22.6087C15.4184 22.1944 15.9245 21.9872 16.5163 21.9872C17.0786 21.9872 17.5728 22.1944 17.9989 22.6087C18.4251 23.023 18.6411 23.5201 18.647 24.1001C18.6411 24.4908 18.5375 24.8488 18.3363 25.1744C18.141 25.494 17.8835 25.7514 17.5639 25.9467C17.2443 26.1361 16.8951 26.2308 16.5163 26.2308Z" fill="#333333"/>
</svg>

<svg xmlns="http://www.w3.org/2000/svg" width="34" height="35" fill="none"><path stroke="#333" stroke-width="3" d="M5.287 26.955 3.86 31.882l4.126-2.102"/><path stroke="#333" stroke-width="3" d="M32.5 17c0 8.56-6.94 15.5-15.5 15.5-8.56 0-15.5-6.94-15.5-15.5C1.5 8.44 8.44 1.5 17 1.5c8.56 0 15.5 6.94 15.5 15.5Z"/><path fill="#333" d="M14.758 20.549v-.302c.006-1.036.098-1.861.276-2.477.183-.615.45-1.112.799-1.491.349-.379.77-.722 1.26-1.03.367-.237.696-.482.986-.737.29-.254.52-.536.692-.843.172-.314.258-.663.258-1.048 0-.408-.098-.766-.293-1.074a1.95 1.95 0 0 0-.79-.71 2.353 2.353 0 0 0-1.083-.249 2.41 2.41 0 0 0-1.092.258 2.084 2.084 0 0 0-.844.745c-.219.326-.337.731-.355 1.216H10.95c.03-1.183.314-2.16.852-2.93a4.882 4.882 0 0 1 2.14-1.73c.887-.385 1.867-.577 2.938-.577 1.178 0 2.22.195 3.125.586.906.384 1.616.944 2.131 1.677.515.734.772 1.62.772 2.655 0 .692-.115 1.308-.346 1.847a4.499 4.499 0 0 1-.95 1.42c-.408.408-.89.778-1.447 1.11a5.875 5.875 0 0 0-1.154.87 2.957 2.957 0 0 0-.666 1.047c-.142.397-.216.885-.222 1.465v.302h-3.365Zm1.758 5.682a2.084 2.084 0 0 1-1.518-.622 2.042 2.042 0 0 1-.612-1.509 2.003 2.003 0 0 1 .612-1.491c.42-.415.927-.622 1.518-.622.563 0 1.057.207 1.483.622.426.414.642.911.648 1.491-.006.39-.11.749-.31 1.074-.196.32-.453.577-.773.773-.32.19-.669.284-1.048.284Z"/></svg>
